X: 849
T: Rye Straw
B: jims roots
M:4/4
L:1/8
R: Reel
Q: 1/4=100
K:D
V:1 
%N:From Fiddler's Fakebook Jim Kendrick
"A"e3f edBe | efgf edBd | e2 ef edBc | "D"dBAF ED3 |
"A"e3f edBe | efgf edef | gfgf eAfe | [1 "D"dBAF ED3:|
E2[E2A] "D"F2 [FA]F | "A"EDEG "D"FEDD | "A"E2 [DA]E "D"FDFA | dBAG FD[D2A] :|
V:2 "D"dBAF ED[eA
V:DA 
 |:[P:B Part] "A"E2[E2A] "D"F2 AF | "A"EDEG "D"FEDD | "A"E2[D2A] "D"F3 F | "A"efed cBA[AD] |
% abcbook-tune_id 6298c2879cd49af195179e02


% abcbook-boost 0
% abcbook-tablature 
% abcbook-transpose 
% abcbook-lastupdated 1654178439913
% abcbook-soundfonts 
% abcbook-repeats 1


